X: 24
T: The Cross well of Edinburgh
%R: reel
B: "Scots Reel & Country Dances for the Year 1769", R.Bremner, ed. p.110
F: http://digital.nls.uk/special-collections-of-printed-music/pageturner.cfm?id=104993891
Z: 2016 John Chambers <jc:trillian.mit.edu>
N: The 4th strain has initial repeat but no final repeat symbol; not fixed.
M: C|
L: 1/8
K: D
% - - - - - - - - - - - - - - - - - - - - - - - - - - - - -
V: 1
|:\
AF (AB/c/ d)ABd | AF (AB/c/ d)FTE2 |\
(AF)AB defd | egTfe d/d/d d2 :|\
|:\
(f/g/a) (df) a>bTag |
(f/g/a) (df) efTed | f/g/a (df) a>bag | fdef d/d/d d2 :|\
|:\
d2(FA) dAdf | dAFA dFTE2 |
d2FA defd | egTfe d/d/d d2 :|\
|:\
(f/g/a) da fdad | (g/a/b) eb gebe | (f/g/a) df a>bTag |
fdef d/d/d d2 | (f/g/a) (.d.a) fdad | (g/a/b) (.e.b) gebg |\
afge fdec | AgTfe d/d/d d2 |]
% - - - - - - - - - - - - - - - - - - - - - - - - - - - - -
V: 2 clef=bass middle=d
|: d2d2 d2d2 | d2d2 e2e2 | d2d2 d2d2 | g2a2 d2d2 :|\
|: d2d2 d2d2 |
   d2d2 e2e2 | d2d2 d2d2 | A2A2 D2D2 :|\
|: d2d2 d2d2 | d2d2 e2e2 | d2d2 d2d2 |
   g2a2 d2d2 :|\
|: d2d2 d2d2 | e2e2 e2e2 | d2d2 d2d2 | A2A2 D2D2 |
   d2d2 d2d2 | e2e2 e2e2 | d2e2 f2g2 | a2A2 d2d2 |]
% - - - - - - - - - - Dance description - - - - - - - - - -
%%begintext align
%% Turn your Partner and cast off .|
%% turn and cast up again :|
%% lead down 2d Cu .|.
%% up again and cast off :|:
%% set corners and turn .||
%% and Hey :||.
%%endtext
%%sep 2 2 400


